humanity-icon-theme/Humanity-Dark/apps/22/nm-stage03-connecting05.svg

<?xml version="1.0" encoding="UTF-8" standalone="no"?>
<!-- Created with Inkscape (http://www.inkscape.org/) -->

<svg
   xmlns:svg="http://www.w3.org/2000/svg"
   xmlns="http://www.w3.org/2000/svg"
   version="1.0"
   width="22"
   height="22"
   id="svg3315">
  <defs
     id="defs3317" />
  <path
     d="M 8.0371257,9.490869 3.7066069,6.9906425"
     id="path3279"
     style="opacity:0.2;fill:none;stroke:#878787;stroke-width:1px;stroke-linecap:round;stroke-linejoin:miter;stroke-opacity:1" />
  <path
     d="M 19.30587,15.99688 14.973389,13.495523"
     id="path3281"
     style="fill:none;stroke:#878787;stroke-width:1px;stroke-linecap:round;stroke-linejoin:miter;stroke-opacity:1" />
  <path
     d="M 7.6369467,10.456989 2.80688,9.162776"
     id="path2629"
     style="opacity:0.175;fill:none;stroke:#878787;stroke-width:1px;stroke-linecap:round;stroke-linejoin:miter;stroke-opacity:1" />
  <path
     d="M 20.205597,13.824747 15.373343,12.529949"
     id="path2631"
     style="opacity:0.875;fill:none;stroke:#878787;stroke-width:1px;stroke-linecap:round;stroke-linejoin:miter;stroke-opacity:1" />
  <path
     d="m 7.5004524,11.493762 -5.0004524,0"
     id="path3403"
     style="opacity:0.15;fill:none;stroke:#878787;stroke-width:1px;stroke-linecap:round;stroke-linejoin:miter;stroke-opacity:1" />
  <path
     d="m 20.512477,11.493761 -5.002717,1e-6"
     id="path3405"
     style="opacity:0.75;fill:none;stroke:#878787;stroke-width:1px;stroke-linecap:round;stroke-linejoin:miter;stroke-opacity:1" />
  <path
     d="M 7.6369474,12.530536 2.8068795,13.824747"
     id="path3407"
     style="opacity:0.125;fill:none;stroke:#878787;stroke-width:1px;stroke-linecap:round;stroke-linejoin:miter;stroke-opacity:1" />
  <path
     d="m 20.205597,9.162776 -4.832255,1.294797"
     id="path3409"
     style="opacity:0.675;fill:none;stroke:#878787;stroke-width:1px;stroke-linecap:round;stroke-linejoin:miter;stroke-opacity:1" />
  <path
     d="M 8.0371259,13.496656 3.7066073,15.996881"
     id="path3415"
     style="opacity:0.1;fill:none;stroke:#878787;stroke-width:1px;stroke-linecap:round;stroke-linejoin:miter;stroke-opacity:1" />
  <path
     d="M 19.30587,6.9906423 14.97339,9.492001"
     id="path3417"
     style="opacity:0.6;fill:none;stroke:#878787;stroke-width:1px;stroke-linecap:round;stroke-linejoin:miter;stroke-opacity:1" />
  <path
     d="M 8.6737217,14.326281 5.1378665,17.862134"
     id="path3419"
     style="opacity:0.075;fill:none;stroke:#878787;stroke-width:1px;stroke-linecap:round;stroke-linejoin:miter;stroke-opacity:1" />
  <path
     d="M 17.874611,5.1253894 14.337156,8.662845"
     id="path3421"
     style="opacity:0.55;fill:none;stroke:#878787;stroke-width:1px;stroke-linecap:round;stroke-linejoin:miter;stroke-opacity:1" />
  <path
     d="m 9.5033463,14.962874 -2.500227,4.330518"
     id="path3423"
     style="opacity:0.05;fill:none;stroke:#878787;stroke-width:1px;stroke-linecap:round;stroke-linejoin:miter;stroke-opacity:1" />
  <path
     d="M 16.009357,3.6941295 13.507999,8.026611"
     id="path3425"
     style="opacity:0.5;fill:none;stroke:#878787;stroke-width:1px;stroke-linecap:round;stroke-linejoin:miter;stroke-opacity:1" />
  <path
     d="M 10.469466,15.363052 9.1752533,20.193119"
     id="path3427"
     style="opacity:0.025;fill:none;stroke:#878787;stroke-width:1px;stroke-linecap:round;stroke-linejoin:miter;stroke-opacity:1" />
  <path
     d="M 13.837225,2.7944031 12.542426,7.6266568"
     id="path3429"
     style="opacity:0.45;fill:none;stroke:#878787;stroke-width:1px;stroke-linecap:round;stroke-linejoin:miter;stroke-opacity:1" />
  <path
     d="m 11.506238,2.4875224 1e-6,5.0027173"
     id="path3433"
     style="opacity:0.4;fill:none;stroke:#878787;stroke-width:1px;stroke-linecap:round;stroke-linejoin:miter;stroke-opacity:1" />
  <path
     d="M 9.1752533,2.7944036 10.470052,7.6266577"
     id="path3437"
     style="opacity:0.35;fill:none;stroke:#878787;stroke-width:0.99999994px;stroke-linecap:round;stroke-linejoin:miter;stroke-opacity:1" />
  <path
     d="M 7.0031194,3.6941295 9.5044783,8.026611"
     id="path2407"
     style="opacity:0.3;fill:none;stroke:#878787;stroke-width:1px;stroke-linecap:round;stroke-linejoin:miter;stroke-opacity:1" />
  <path
     d="M 5.1378661,5.1253908 8.6753218,8.662846"
     id="path2413"
     style="opacity:0.25;fill:none;stroke:#878787;stroke-width:1px;stroke-linecap:round;stroke-linejoin:miter;stroke-opacity:1" />
  <path
     d="M 17.874611,17.862133 14.337155,14.324678"
     id="path2401"
     style="opacity:0;fill:none;stroke:#878787;stroke-width:1px;stroke-linecap:round;stroke-linejoin:miter;stroke-opacity:1" />
  <path
     d="m 13.837225,20.193119 -1.2948,-4.832254"
     id="path2405"
     style="opacity:0;fill:none;stroke:#878787;stroke-width:1px;stroke-linecap:round;stroke-linejoin:miter;stroke-opacity:1" />
  <path
     d="m 16.009358,19.293392 -2.50136,-4.332479"
     id="path2410"
     style="opacity:0;fill:none;stroke:#878787;stroke-width:1px;stroke-linecap:round;stroke-linejoin:miter;stroke-opacity:1" />
  <path
     d="m 11.506238,20.5 0,-5.002717"
     id="path2414"
     style="opacity:0;fill:none;stroke:#878787;stroke-width:1px;stroke-linecap:round;stroke-linejoin:miter;stroke-opacity:1" />
</svg>

<?xml version="1.0" encoding="UTF-8" standalone="no"?>
<!-- Created with Inkscape (http://www.inkscape.org/) -->
<svg id="svg3315" xmlns="http://www.w3.org/2000/svg" height="22" width="22" version="1.0">
 <path id="path3279" style="opacity:.2;stroke:#878787;stroke-linecap:round;stroke-width:1px;fill:none" d="m8.0371 9.4909-4.3305-2.5003"/>
 <path id="path3281" style="stroke:#878787;stroke-linecap:round;stroke-width:1px;fill:none" d="m19.306 15.997-4.333-2.501"/>
 <path id="path2629" style="opacity:.175;stroke:#878787;stroke-linecap:round;stroke-width:1px;fill:none" d="m7.6369 10.457-4.83-1.2942"/>
 <path id="path2631" style="opacity:.875;stroke:#878787;stroke-linecap:round;stroke-width:1px;fill:none" d="m20.206 13.825-4.833-1.295"/>
 <path id="path3403" style="opacity:.15;stroke:#878787;stroke-linecap:round;stroke-width:1px;fill:none" d="m7.5005 11.494h-5.0005"/>
 <path id="path3405" style="opacity:.75;stroke:#878787;stroke-linecap:round;stroke-width:1px;fill:none" d="m20.512 11.494-5.0027 0.000001"/>
 <path id="path3407" style="opacity:.125;stroke:#878787;stroke-linecap:round;stroke-width:1px;fill:none" d="m7.6369 12.531-4.83 1.294"/>
 <path id="path3409" style="opacity:.675;stroke:#878787;stroke-linecap:round;stroke-width:1px;fill:none" d="m20.206 9.1628-4.8323 1.2948"/>
 <path id="path3415" style="opacity:.1;stroke:#878787;stroke-linecap:round;stroke-width:1px;fill:none" d="m8.0371 13.497-4.3305 2.5"/>
 <path id="path3417" style="opacity:.6;stroke:#878787;stroke-linecap:round;stroke-width:1px;fill:none" d="m19.306 6.9906-4.333 2.5014"/>
 <path id="path3419" style="opacity:.075;stroke:#878787;stroke-linecap:round;stroke-width:1px;fill:none" d="m8.6737 14.326-3.5358 3.536"/>
 <path id="path3421" style="opacity:.55;stroke:#878787;stroke-linecap:round;stroke-width:1px;fill:none" d="m17.875 5.1254-3.538 3.5374"/>
 <path id="path3423" style="opacity:.05;stroke:#878787;stroke-linecap:round;stroke-width:1px;fill:none" d="m9.5033 14.963-2.5002 4.3305"/>
 <path id="path3425" style="opacity:.5;stroke:#878787;stroke-linecap:round;stroke-width:1px;fill:none" d="m16.009 3.6941-2.501 4.3325"/>
 <path id="path3427" style="opacity:.025;stroke:#878787;stroke-linecap:round;stroke-width:1px;fill:none" d="m10.469 15.363-1.2937 4.83"/>
 <path id="path3429" style="opacity:.45;stroke:#878787;stroke-linecap:round;stroke-width:1px;fill:none" d="m13.837 2.7944-1.295 4.8323"/>
 <path id="path3433" style="opacity:.4;stroke:#878787;stroke-linecap:round;stroke-width:1px;fill:none" d="m11.506 2.4875 0.000001 5.0027"/>
 <path id="path3437" style="opacity:.35;stroke:#878787;stroke-linecap:round;stroke-width:1px;fill:none" d="m9.1753 2.7944 1.2947 4.8323"/>
 <path id="path2407" style="opacity:.3;stroke:#878787;stroke-linecap:round;stroke-width:1px;fill:none" d="m7.0031 3.6941 2.5014 4.3325"/>
 <path id="path2413" style="opacity:.25;stroke:#878787;stroke-linecap:round;stroke-width:1px;fill:none" d="m5.1379 5.1254 3.5374 3.5374"/>
 <path id="path2401" style="opacity:0;stroke-width:1px" d="m17.875 17.862-3.538-3.537"/>
 <path id="path2405" style="opacity:0;stroke-width:1px" d="m13.837 20.193-1.2948-4.8323"/>
 <path id="path2410" style="opacity:0;stroke-width:1px" d="m16.009 19.293-2.5014-4.3325"/>
 <path id="path2414" style="opacity:0;stroke-width:1px" d="m11.506 20.5v-5.0027"/>
</svg>
